X:1
T:Fantaisie sur un theme de Lucia di Lammermoor
T:Fantaisie sur un thème de Lucia di Lammermoor
T:Op. 46
T:Léon de Saint-Lubin
C:Léon de Saint-Lubin
%%score ( 1 2 3 )
L:1/8
Q:1/4=50
M:3/4
K:D
V:1 treble nm="Violin"
V:2 treble 
V:3 treble 
V:1
"^Larghetto" (.A>.A) | ([DFA]3 [Fd]){/[A,Fd]} ([Af]>[Ge]) | d3/2 x/ A2 [DFd]>[Ac] | %3
!<(! [G,GB]3 [A,Gc] [B,Gd][CGAe]!<)! | ([FA]>[DF]) [FA]2 .[DFA]>.[DAf] | %5
 (!turn![Af]>[Bg]) ([Ge]>.[CGA])[A,Gc]>[CGAe] |"^()" (!turn!^e>f) =d2"_cresc." [DAf][D^Af] | %7
!<(! [Bf] z z/!<)! ([Be]/[eg]/).[=df]/ .[ce]/.[=Dd]/.[Ec]/.[^EB]/ | %8
 ([CF^A]/!>!f'/-) (6:4:6f'/4c'/4^a/4f/4c/4^A/4 F2 (f>g) | %9
 g2-"_pizz." [eg]/.[df]/.[ce]/.[Bd]/ .[Ac]/(.[GB]/.[FA]/.[EG]/) | %10
 ([EG]/[DF]/[GB]/[FA]/)"^a" (3(AB).c (3.d.e.f | %11
!ff!"^glissez." (gg') (!^![Ag']/[Af']/)"_marcato".[Ae']/.[Ad']/ .[Ac']/.[Ab]/.[Aa]/.[Ag]/ | %12
 .[Ag]/.[Af]/.[Ab]/.[Aa]/ .[Aa]/ z/ z (10:8:10.[CGA]/4(A,/4^G,/4A,/4_B,/4A,/4=B,/4A,/4).[CGA]/4.A,/4 | %13
 ([Af]3{gf)} .e/.d/"_arco" (d/c/).B/.A/ | a2"_dolce" (!arpeggio!ag).^d.e | %15
 [EAg]>[DAf]{/a} [EAg]>[DAf]{/a} [EAg]>[DAf] | %16
 .v[DAf]/.v[CEAe]/ !fermata!v[A,EAg]2 (!^!!fermata!T[A,Gc]{!fermata!^B!fermata!c!fermata!a)} a>a | %17
!p! (!arpeggio!a2- a>d')(f'>e') | (!arpeggio!d'2- d'>a)(!arpeggio!d'>c') | %19
 !arpeggio![gb]2- [gb-] (12:8:12(b/8^a/8c'/8b/8d'/8c'/8e'/8d'/8g'/8f'/8a'/8g'/8 b'/8a'/8g'/8f'/8g'/8f'/8e'/8d'/8 e'/4d'/4).c'/4.b/4 | %20
 !arpeggio!a4"^arco" (!>!F/4A/4a/4A/4 !>!D/4A/4f'/4A/4) | %21
"_dolce""^ten." (!>!G/4c/4A/4f'/4) (f'/4A/4g'/4A/4)"^ten." (!>!G/4c/4A/4e'/4) (e'/4A/4c/4G/4) (!>!A,/4E/4).A/4.c/4 .e/4.a/4(.c'/4.e'/4) | %22
"^ten." (!>!^G,/4D/4B/4^e'/4) (e'/4A/4f'/4A/4) (!>!A,/4F/4A/4d'/4) (d'/4A/4F/4A,/4) ([DA]/4[Af']/4)([Af']/4[DA]/4) ([D^A]/4[Af]/4)([Af]/4[DA]/4) | %23
 ([G,D]/4[Bf]/4)([Bf]/4[G,D]/4) ([G,^D]/4[Bf]/4)([Bf]/4[G,D]/4) ([G,E]/4[Be]/4)(e/4e'/4) (g/4g'/4)(f/4f'/4) (e/4e'/4)([G,=D]/4[dd']/4) ([G,E]/4[cc']/4)([G,^E]/4[Bb]/4) | %24
!f! ([F^A^a]/4[ff']/4).[^e^e']/4.[^d^d']/4 .[cc']/4.[Bb]/4.[Aa]/4.[^G^g]/4 [Ff]2 (Tf7/4{=ef)}(=a/8=g/8) | %25
 g2 !^!g/f/e/!>(!"^sul D" (vB/8d/8B/8d/8 A/8c/8A/8c/8G/8B/8G/8B/8F/8A/8F/8A/8E/8G/8E/8G/8)!>)! | %26
 (E/8G/8E/8G/8D/8F/8D/8F/8G/8B/8G/8B/8F/8A/8F/8A/8) (12:8:12(F/8A/8F/8A/8F/8A/8F/8A/8F/8A/8F/8A/8)!<(! (12:16:12(A,/16B,/16C/16D/16E/16F/16G/16A/16B/16c/16d/16e/16)!<)! ff | %27
 g2- g/ (!^!f/e/) vB/8!>(!d/8B/8d/8 A/8c/8A/8c/8G/8B/8G/8B/8F/8A/8F/8A/8E/8G/8E/8G/8!>)! | %28
 (E/8G/8E/8G/8D/8F/8D/8F/8G/8B/8G/8B/8F/8A/8F/8A/8) (F/8A/8F/8A/8F/8A/8F/8A/8F/8A/8F/8A/8) (^G/16A/16B/16A/16=G/16F/16E/16D/16) A/8 x/8 x/4 x"^ten." A/8 x/8 x/4 | %29
"^marcato il canto" f/8 x/8 x/4 x/ x f/8 x7/8 e/8 x3/8 d/8 x3/8 d/8 x3/8 c/8 x3/8 B/8 x3/8 A/8 x3/8 | %30
"^a piacere" (15:16:15(!>!B,/16=C/16B,/16^A,/16B,/16^D/16F/16=A/16B/16^d/16f/16a/16b/16^d'/16f'/16 (13:16:13!>!a'/16)(f'/16d'/16b/16a/16f/16d/16B/16A/16F/16D/16B,/16=A,/16 (11:16:11!>!G,/16)(B,/16E/16G/16B/16e/16g/16b/16e'/16g'/16b'/16"_ritenuto" e''/)"^sul G"(E/ G/>)(.F/ .E/4.=D/4)(.C/4.B,/4) | %31
 !fermata!vA,2 .D/.F/.A/.d/.f/.a/.d'/.f'/ !fermata!ua'2 (g'/8f'/8^e'/8f'/8g'/8f'/8=e'/8d'/8c'/8d'/8e'/8d'/8c'/8b/8^g/8a/8b/8a/8=g/8f/8^e/8f/8g/8f/8=e/8d/8)(c/8d/8e/8d/8c/8B/8^G/8A/8B/8A/8=G/8F/8^E/8F/8G/8F/8=E/8D/8) | %32
"^sul G" (6:4:6(!>!C/4B,/4A,/4B,/4C/4D/4 (6:4:6!>!E/4"_cresc."D/4C/4D/4E/4F/4 !>!G/4F/4E/4F/4G/4A/4).B/4.A/4"_con passione" .c/4.B/4.A/4.^G/4 (6:4:6(!>!=G/4E/4)(B,/4^A,/4B,/4D/4)!<(! (6:2:6(TC/ ^B,/C/D/C/F/)!<)!!>(! (2:4:2!fermata!F/4 !fermata!E/4!>)! | %33
!p!"^leggiero e con grazia" (D/8F/8A/8d'/8) (d'/8A/8F/8D/8) (D/8F/8A/8d'/8) (d'/8A/8F/8D/8) (D/8F/8A/8d'/8) (d'/8A/8F/8D/8) (D/8F/8A/8d'/8) (d'/8A/8F/8D/8) (D/8F/8A/8c'/8) (c'/8A/8F/8D/8) (D/8F/8A/8b/8) (b/8A/8F/8D/8) | %34
 (C/8G/8A/8b/8) (b/8A/8G/8C/8) (C/8G/8A/8b/8) (b/8A/8G/8C/8) (C/8G/8A/8b/8) (b/8A/8G/8C/8) (A,/8E/8c/8a/8) (a/8c/8E/8A,/8) (A,/8G/8e/8c'/8) (c'/8e/8G/8A,/8) (A,/8E/8c/8b/8) (a/8c/8E/8A,/8) | %35
 (A,/8F/8d/8a/8) (a/8d/8F/8A,/8)"_cresc." (A,/8F/8d/8a/8) (a/8d/8F/8A,/8) (D/8A/8f/8d'/8) (d'/8f/8A/8D/8) (D/8A/8f/8f'/8) (f'/8f/8A/8D/8)!f! (6:4:6.D/.[DAf']/.[DAe']/.[DAd']/.[DAc']/.[DAb]/ | %36
!p! (C/8G/8A/8b/8) (b/8A/8G/8C/8) (C/8G/8A/8b/8) (b/8A/8G/8C/8) (C/8G/8A/8b/8) (b/8A/8G/8C/8) (A,/8E/8c/8a/8) (a/8c/8E/8A,/8) (A,/8G/8e/8c'/8) (c'/8e/8G/8A,/8) (A,/8E/8c/8b/8) (a/8c/8E/8A,/8) | %37
 (A,/8F/8d/8a/8) (a/8d/8F/8A,/8) (A,/8F/8d/8a/8)"_cresc." (a/8d/8F/8A,/8) (D/8A/8f/8d'/8) (d'/8f/8A/8D/8) (!>!D/8A/8f/8f'/8) (f'/8f/8A/8D/8) (!>!D/8F/8A/8f/8) (f/8A/8F/8D/8) (!>!=C/8F/8A/8e/8) (e/8A/8F/8!f!C/8) | %38
!p! (!>!B,/8F/8A/8e/8) (e/8A/8F/8B,/8) (B,/8F/8A/8e/8) (e/8A/8F/8B,/8) (B,/8F/8^d/8b/8) (b/8d/8F/8B,/8) (3.B,/([^A^a]/[Bb]/) (B,/8F/8=A/8=d'/8) (d'/8A/8F/8B,/8) (3.B,/([=c=c']/[Bb]/) | %39
!<(! (G,/8E/8B/8b/8) (b/8B/8E/8G,/8!<)!!>(! B,/8G/8B/8e/8) (e/8B/8G/8B,/8!>)!!<(! A,/8F/8^d/8b/8) (b/8d/8F/8A,/8!<)!!>(! B,/8F/8d/8f/8) (f/8d/8F/8B,/8!>)!!<(! G,/8E/8B/8b/8) (b/8B/8E/8G,/8!<)!!>(! B,/8G/8B/8e/8) (e/8B/8G/8B,/8!>)! | %40
!<(! ^G,/8=F/8=d/8b/8) (b/8d/8F/8G,/8!<)!"^poco accelerando"!>(! B,/8^G/8=f/8d'/8) (d'/8f/8G/8B,/8!>)!!<(! A,/8^F/8d/8a/8) (a/8d/8F/8A,/8!<)!!>(! D/8A/8^f/8d'/8) (d'/8f/8A/8D/8!>)!!<(! _B,/8=F/8d/8_a/8) (a/8d/8F/8B,/8!<)!"^dolce"!>(! F/8d/8_b/8_a'/8) (a'/8b/8d/8F/8!>)! | %41
"^a tempo" =A,/8^F/8d/8=a/8) (a/8d/8F/8A,/8) (D/8A/8f/8d'/8) (d'/8f/8A/8D/8) (F/8D/8A/8f'/8) (f'/8A/8D/8F/8) (F/8D/8A/8^g'/8) (g'/8A/8D/8F/8) (6:4:6.[DFAa']/.[^e^e']/.[ff']/"_dolce"([aa']/[cc']/[dd']/) | %42
 (A,/8E/8A/8e/8) (e/8A/8E/8A,/8) (C/8E/8A/8e/8) (e/8A/8E/8C/8) (A,/8E/8c/8a/8) (a/8c/8E/8A,/8) (A,/8E/8A/8c'/8) (c'/8A/8E/8A,/8) (6:4:6!arpeggio![A,EAe']/.[^d^d']/.[ee']/([gg']/[Bb]/[cc']/) | %43
"^leggierissimo" (.D/8.F/8.A/8.d'/8) (.d'/8.A/8.F/8.D/8) (.D/8.F/8.A/8.d'/8) (.d'/8.A/8.F/8.D/8) (.D/8.F/8.A/8.d'/8) (.d'/8.A/8.F/8.D/8) (.D/8.F/8.A/8.d'/8) (.d'/8.A/8.F/8.D/8) (.D/8.F/8.A/8.c'/8) (.c'/8.A/8.F/8.D/8) (.D/8.F/8.A/8.b/8) (.b/8.A/8.F/8.D/8) | %44
 (.C/8.G/8.A/8.b/8) (.b/8.A/8.G/8.C/8) (.C/8.G/8.A/8.b/8) (.b/8.A/8.G/8.C/8) (.C/8.G/8.A/8.b/8) (.b/8.A/8.G/8.C/8) (.A,/8.E/8.c/8.a/8) (.a/8.c/8.E/8.A,/8) (.A,/8.G/8.e/8.c'/8) (.c'/8.e/8.G/8.A,/8) (.A,/8.E/8.c/8.b/8) (.a/8.c/8.E/8.A,/8) | %45
 (A,/8D/8F/8D/8 A/8F/8d/8A/8 f/8d/8a/8f/8 d'/8a/8f'/8d'/8 a'/8)(f'/8d'/8a/8 f'/8d'/8a/8f/8 d'/8a/8f/8d/8 a/8f/8d/8A/8)"_marcato" (6:4:6.F/.[DAf']/.[DAe']/.[DAd']/.[DAc']/.[DAb]/ | %46
!p! (.C/8.G/8.A/8.b/8) (.b/8.A/8.G/8.C/8) (.C/8.G/8.A/8.b/8) (.b/8.A/8.G/8.C/8) (.C/8.G/8.A/8.b/8) (.b/8.A/8.G/8.C/8) (.A,/8.E/8.c/8.a/8) (.a/8.c/8.E/8.A,/8) (.A,/8.G/8.e/8.c'/8) (.c'/8.e/8.G/8.A,/8) (.A,/8.E/8.c/8.b/8) (.a/8.c/8.E/8.A,/8) | %47
 (A,/8D/8F/8A/8"_cresc." F/8D/8F/8A/8 d/8f/8a/8f/8 d/8f/8a/8d'/8 f'/8a'/8f'/8d'/8 f'/8a'/8d''/8)(d''/8 a'/8f'/8d'/8a/8 f/8d/8A/8F/8) (D/8"_riten."F/8A/8f/8) (f/8A/8F/8D/8) (=C/8F/8A/8e/8) (e/8A/8F/8C/8) | %48
 (.B,/8!p!.F/8.A/8.e/8) (.e/8.A/8.F/8.B,/8) (.B,/8.F/8.A/8.e/8) (.e/8.A/8.F/8.B,/8) (.B,/8.F/8.^d/8.b/8) (.b/8.d/8.F/8.B,/8) (3.B,/([^A^a]/[Bb]/) (.B,/8.F/8.=A/8.=d'/8) (.d'/8.A/8.F/8.B,/8) (3.B,/([=c=c']/[Bb]/) | %49
!<(! (G,/8E/8B/8b/8) (b/8B/8E/8G,/8!<)!!>(! B,/8G/8B/8e/8) (e/8B/8G/8B,/8!>)!!<(! A,/8F/8^d/8b/8) (b/8d/8F/8A,/8!<)!!>(! B,/8F/8d/8f/8) (f/8d/8F/8B,/8!>)!!<(! G,/8E/8B/8b/8) (b/8B/8E/8G,/8!<)!!>(! B,/8G/8B/8e/8) (e/8B/8G/8B,/8!>)! | %50
!<(! ^G,/8=F/8=d/8b/8) (b/8d/8F/8G,/8!<)!"^poco accelerando e cresc."!>(! B,/8^G/8=f/8d'/8) (d'/8f/8G/8B,/8!>)!!<(! A,/8^F/8d/8a/8) (a/8d/8F/8A,/8!<)!!>(! D/8A/8^f/8d'/8) (d'/8f/8A/8D/8!>)!!<(! _B,/8=F/8d/8_a/8) (a/8d/8F/8B,/8!<)!"^dolce"!>(! F/8d/8_b/8_a'/8) (a'/8b/8d/8F/8!>)! | %51
"^a tempo" =A,/8^F/8d/8=a/8) (a/8d/8F/8A,/8) (D/8A/8f/8d'/8) (d'/8f/8A/8D/8) (F/8D/8A/8f'/8) (f'/8A/8D/8F/8) (F/8D/8A/8a'/8) (a'/8A/8D/8F/8) (6:4:6.[DFAd'']/.c''/.b'/.a'/.g'/.f'/ | %52
 (!>!A,/8E/8A/8e/8) (e/8A/8E/8A,/8) (!>!C/8E/8A/8e/8) (e/8A/8E/8C/8) (!>!A,/8E/8c/8a/8) (a/8c/8E/8A,/8) (!>!A,/8E/8A/8c'/8) (c'/8A/8E/8A,/8)"_poco ritenuto"{/A,} (6:4:6[Ace']/[A^B^d']/[Ace']/[Aeg']/v[GA=b]/v[GAc']/ | %53
"^marcato" d'/8 x/8 x/4 x/ x f/8 x/8 x/4 x/ x e/8 x/8 x/4 x/ d/8 x/8 x/4 x/ | %54
 .e/8 x/8 x/4 x/ x .f/8 x/8 x/4 .e/8 x/8 x/4 x ._B/8 x/8 x/4 .e/8 x/8 x/4 x .A/8 x/8 x/4 | %55
 .A/8 x/8 x/4 x/ .f/8 x/8 x/4 x/ x .f/8 x/8 x/4 x/ .e/8 x/8 x/4 x/ .d/8 x/8 x/4 x/ | %56
 .e/8 x/8 x/4 x/ x/ f/8 x/8 x/4 .e/8 x/8 x/4 x/ x/ .A/8 x/8 x/4"^ten.""_leggiero" (5:8:5(!>!A,/8C/8G/8A/8e/8) !fermata!z | %57
 z vA!<(! (.c/.d/)e/f/ g2-!<)! |!mp!"_cresc." g2 ^g4 | %59
!ff! ([A,Eca]/>[c'a']/) !>!!fermata![c'a']2 .[bg']/.[ge']/ .[ec']/.[ca]/.[Ag]/.[Ge]/ | %60
 (!fermata!T[Ec]{!fermata!d)!fermata!c} [^D^B]/[Ec]/ (3([F=d]/[Ec]/[Af]/) ([Af]2{[Ge])} !fermata![Ge] (6:4:6!>!^G,/!>!A,/!>!_B,/!>!=B,/!>!=C/!>!!fermata![^CGAe]/ | %61
 d4 f2 | a4 d'2 |!p! f'4 d'2 | a2 f2 d2 |"^perdendosi" A6 | F6 | %67
({/CDE)} TvD6[Q:1/4=160]!<(! (uC/D/E/F/G/A/B/c/d/e/f/g/a/b/c'/)!<)! |!ff! [Ddd']2 z2 z2 |] %69
V:2
 .A>.A | x6 | ([DF]3/2A/4G/4) F2 x2 | x6 | D x z2 x2 | [CG] z x4 | D z F2 x2 | %7
 [G,D]([G,^D] [G,E]/) x/ x x .G, | x6 | [=A,E] z !plus![A,E] z z2 | x2 (3(F{GFEF}G).A (3.B.c.d | %11
 (ee') (!>!e/d/).c/.B/ .A/.G/.F/.E/ | .E/.D/.G/.F/ .F/ (.D/.F/.E/) x2 | %13
 [DF]"^pizz." !plus!D!plus!D z [EG] z | %14
 (10:8:10([B,F^d]/4B/4^A/4B/4=c/4B/4^c/4B/4d/4B/4) [G,EB] z z2 | A, z A, z A, z | x6 | %17
 z/"^pizz." !plus!A,/!plus!D/!plus!F/ !plus!A!plus!A z !plus!A | %18
 z/ !plus!A,/!plus!D/!plus!F/ !plus!A!plus!A z !plus!D | %19
 z/ !plus!G,/!plus!B,/!plus!D/ !plus!G!plus!G, z !plus![G,D] | %20
 z/ !plus!A,/!plus!D/!plus!F/ !plus!A!plus!A x2 | x6 | x6 | x6 | x6 | %25
 ([A,EA]/8e/8A/8e/8A/8e/8A/8e/8A/8e/8A/8e/8A/8e/8A/8e/8) A/8e/8A/8e/8A/8d/8A/8d/8A/8c/8A/8c/8 A/- A2 | %26
 !^!A2 A x ([DA]/8d/8A/8d/8A/8d/8A/8d/8) ([^DA]/8=c/8A/8c/8A/8c/8A/8c/8) | %27
 ([A,EA]/8^c/8A/8c/8A/8c/8A/8c/8A/8c/8A/8c/8A/8c/8A/8c/8 A/8c/8A/8c/8)(A/8d/8A/8d/8A/8c/8A/8c/8 A/-) A2 | %28
 A2 A>A (!>![CG]/8[A,E]/8[CE]/8[A,E]/8[CE]/8[A,E]/8[CE]/8[A,E]/8[CE]/8[A,E]/8[CE]/8[A,E]/8)!>![CG]/8([A,E]/8[CE]/8[A,E]/8) | %29
 .[DA]/8([FA]/8[DA]/8[FA]/8[DA]/8[FA]/8[DA]/8[FA]/8[DA]/8[FA]/8[DA]/8[FA]/8[DA]/8[FA]/8[DA]/8[FA]/8) .[DA]/8([FA]/8[DA]/8[FA]/8[DA]/8[FA]/8[DA]/8[FA]/8) .[DA]/8([FA]/8[DA]/8[FA]/8) .D/8([FA]/8[DA]/8[FA]/8) .[A,E]/8(G/8E/8G/8) .E/8(G/8E/8G/8) .[B,E]/8(G/8E/8G/8) .[CE]/8(G/8E/8G/8) | %30
 x359/60 | x27/2 | x8 | x6 | x6 | x6 | x6 | x6 | x6 | x6 | x6 | x6 | x6 | x6 | x6 | x6 | x6 | x6 | %48
 x6 | x6 | x6 | x6 | x6 | %53
 .[DFA]/8([FA]/8[DA]/8[FA]/8[DA]/8[FA]/8[DA]/8[FA]/8[DA]/8[FA]/8[DA]/8[FA]/8[DA]/8[FA]/8[DA]/8[FA]/8) .[DA]/8([FA]/8[DA]/8[FA]/8[DA]/8[FA]/8[DA]/8[FA]/8[DA]/8[FA]/8[DA]/8[FA]/8[DA]/8[FA]/8[DA]/8[FA]/8) .[DA]/8([FA]/8[DA]/8[FA]/8[DA]/8[FA]/8[DA]/8[FA]/8) .D/8([FA]/8[DA]/8[FA]/8[DA]/8[FA]/8[DA]/8[FA]/8) | %54
 [DG_B]/8([GB]/8[DB]/8[GB]/8[DB]/8[GB]/8[DB]/8[GB]/8[DB]/8[GB]/8[DB]/8[GB]/8[DB]/8[GB]/8[DB]/8[GB]/8) [DB]/8([GB]/8[DB]/8[GB]/8) [DB]/8([GB]/8[DB]/8[GB]/8[DB]/8[GB]/8[DB]/8[GB]/8[DB]/8[GB]/8[DB]/8[GB]/8) [G,D]/8([GB]/8[DB]/8[GB]/8) [CGA]/8([CG]/8[A,G]/8[CG]/8[A,G]/8[CG]/8[A,G]/8[CG]/8[A,G]/8[CG]/8[A,G]/8[CG]/8) [CG]/8([CG]/8[A,G]/8[CG]/8) | %55
 [DF]/8([FA]/8[DA]/8[FA]/8[DA]/8[FA]/8[DA]/8[FA]/8) ([DA]/8[FA]/8[DA]/8[FA]/8[DA]/8[FA]/8[DA]/8[FA]/8[DA]/8[FA]/8[DA]/8[FA]/8[DA]/8[FA]/8[DA]/8[FA]/8) ([DA]/8[FA]/8[DA]/8[FA]/8[DA]/8[FA]/8[DA]/8[FA]/8) [CGA]/8([GA]/8[EA]/8[GA]/8[EA]/8[GA]/8[EA]/8[GA]/8) D/8([FA]/8[DA]/8[FA]/8[DA]/8[FA]/8[DA]/8[FA]/8) | %56
 [CGA]/8([CG]/8[A,G]/8[CG]/8[A,G]/8[CG]/8[A,G]/8[CG]/8[A,G]/8[CG]/8[A,G]/8[CG]/8) [CGA]/8([CG]/8[A,G]/8[CG]/8) [CGA]/8([CG]/8[A,G]/8[CG]/8[A,G]/8[CG]/8[A,G]/8[CG]/8[A,G]/8[CG]/8[A,G]/8[CG]/8) [CG]/8([CG]/8[A,G]/8[CG]/8) x2 | %57
 x A (.A/.B/)c/d/ e2- | e2 d4 | x6 | A, x x2 x !>!A, x x | %61
 [DF]/8(A/8F/8A/8F/8A/8F/8A/8F/8A/8F/8A/8F/8A/8F/8A/8 F/8A/8F/8A/8F/8A/8F/8A/8F/8A/8F/8A/8F/8A/8F/8A/8) [DA]/8(d/8A/8d/8A/8d/8A/8d/8A/8d/8A/8d/8A/8d/8A/8d/8) | %62
 (!////-!d2 f2) (!////-!f a) | (!////-!a2 d'2) (!////-!f a) | %64
 (!////-!d f) (!////-!A d) (!////-!F A) | (!////-!D3 F3) | (!////-!A,3 D3) | x27/2 | x6 |] %69
V:3
 x2 | x6 | x6 | x6 | x6 | x6 | A2 x4 | x6 | x6 | =Ae- x4 | x6 | [A,E] x x4 | x6 | x6 | x6 | x6 | %16
 x6 | [DFA] x x4 | [DA] x x2 [FA] x | [G,D] x x4 | [FA] x x4 | x6 | x6 | x6 | x6 | x6 | x6 | x6 | %28
 x6 | x6 | x359/60 | x27/2 | x8 | x6 | x6 | x6 | x6 | x6 | x6 | x6 | x6 | x6 | x6 | x6 | x6 | x6 | %46
 x6 | x6 | x6 | x6 | x6 | x6 | x6 | x6 | x13/2 | x6 | x6 | x A, x4 | x6 | x6 | E x x2 x2 x x | x6 | %62
 F/8 x/8 x/4 x/ x x2 D/4 x/4 x/ x | D/8 x/8 x/4 x/ x x2 D/8 x/8 x/4 x/ x | %64
 x/4 x/4 x/ x x/4 x/4 x/ x x/4 x/4 x/ x | x/4 x/4 x/ x x4 | x/4 x/4 x/ x x4 | x27/2 | x6 |] %69

